X: 21181
T: Katie Jane Of Lewis
R: strathspey
M: 4/4
K: Amajor
E2||A2A2F2E>F|A2c<e f2 ef|a2e2c2A>c|e>c BA F2E>F|
A2A2F2E>F|A2c<e f2 ef|a2f>e c2 A>c|B2AF A2c<e||
f2e2a2e2|f>e c<e f2 e>g|a>g fe f>e c<A|A2c>A F2E>F|
A2A2F2E>F|A2c<e f2 ef|a2 f<e c2 A>c|B2AF A2||

